!!!ONB: MCCC : IFC0021_05 : Extracted Monophonic Melody
!!!COM: Chopin, Frédéric
!!!OPR: Etudes
!!!OMV: 5
!!!SCT: Op.10
!!!ODT: 1829///
**kern
*thru
*staff1
*Ipiano
*clefG2
*k[b-e-a-d-g-c-]
*G-:
*M2/4
*MM116
=1
24gg-
24bb-
24gg-
24gg-
24ee-
24gg-
24dd-
24gg-
24b-
24dd-
24g-
24b-
=2
24gg-
24bb-
24dd-
24gg-
24ee-
24gg-
24dd-
24gg-
24b-
24dd-
24g-
24b-
=3
24d-
24dd-
24a-
24dd-
24a-
24aa-
24a-
24aa-
24ee-
24aa-
24ee-
24eee-
=4
24ee-
24eee-
24aa-
24ee-
24a-
24aa-
24a-
24aa-
24ee-
24aa-
24dd-
24ddd-
=5
24gg-
24bb-
24dd-
24gg-
24ee-
24gg-
24dd-
24gg-
24b-
24ddd-
24gg-
24bb-
=6
24gg-
24bb-
24dd-
24gg-
24ee-
24gg-
24dd-
24gg-
24b-
24dd-
24g-
24b-
=7
24e-
24ee-
24a-
24ee-
24a-
24aa-
24ee-
24aa-
24ee-
24ee-
24a-
24aa-
=8
24b-
24bb-
24b-
24bb-
24b-
24bb-
24b-
24bb-
24b-
24bb-
24b-
24bb-
=9
24gg-
24bb-
24dd-
24gg-
24ee-
24gg-
24dd-
24gg-
24b-
24dd-
24g-
24b-
=10
24gg-
24bb-
24dd-
24gg-
24ee-
24gg-
24dd-
24gg-
24b-
24dd-
24g-
24b-
=11
24d-
24dd-
24a-
24dd-
24a-
24aa-
24a-
24aa-
24ee-
24aa-
24ee-
24eee-
=12
24ee-
24eee-
24aa-
24ee-
24a-
24aa-
24a-
24aa-
24ee-
24aa-
24dd-
24ddd-
=13
24gg-
24bb-
24dd-
24gg-
24ee-
24gg-
24dd-
24gg-
24b-
24dd-
24g-
24b-
=14
24gg-
24bb-
24dd-
24gg-
24ee-
24gg-
24dd-
24gg-
24b-
24dd-
24g-
24b-
=15
24e-
24ee-
24a-
24ee-
24a-
24aa-
24ee-
24aa-
24ee-
24eee-
24aa-
24eee-
=16
24ee-
24eee-
24aa-
24eee-
24dd-
24ddd-
24aa-
24ddd-
24aa-
24aa-
24dd-
24ddd-
=17
24aa-
24bb-
24aa-
24ee-
24eee-
24ee-
24dd-
24ee-
24dd-
24a-
24aa-
24a-
=18
24aa-
24bb-
24aa-
24ee-
24eee-
24ee-
24dd-
24ee-
24dd-
[8a-
=19
24a-]
24ee-
24aa-
24bb-
24aa-
24ee-
24dd-
24aa-
24ddd-
24eee-
24ddd-
24bb-
=20
24a-
24ee-
24aa-
24bb-
24aa-
24ee-
24dd-
24aa-
24ddd-
24eee-
24ddd-
24bb-
=21
24aa-
24bb-
24aa-
24ee-
24eee-
24ee-
24dd-
24ee-
24dd-
24a-
24aa-
24a-
=22
24aa-
24bb-
24aa-
24ee-
24eee-
24ee-
24dd-
24ee-
24dd-
[8a-
=23
24a-]
24aa-
24gg-
24aa-
24gg-
24aa-
24eee-
24aa-
24gg-
24aa-
24gg-
24aa-
=24
24a-
24aa-
24gg-
24aa-
24gg-
24aa-
24eee-
24aa-
24gg-
24aa-
24gg-
24aa-
=25
24b-
24bb-
24gg-
24bb-
24gg-
24bb-
24ggg-
24bb-
24gg-
24bb-
24gg-
24bb-
=26
24b-
24bb-
24gg-
24bb-
24gg-
24bb-
24ggg-
24bb-
24gg-
24bb-
24gg-
24bb-
=27
24g-
24b-
24g-
24bb-
24b-
24g-
24aa-
24b-
24g-
24gg-
24b-
24g-
=28
24dd-
24b-
24g-
24bb-
24b-
24g-
24aa-
24b-
24g-
24gg-
24b-
24g-
=29
24d-
24dd-
24b-
24dd-
24dd-
24ddd-
24bb-
24ddd-
24dd-
24dd-
24b-
24dd-
=30
24d-
24dd-
24b-
24dd-
24dd-
24ddd-
24bb-
24ddd-
24dd-
24dd-
24b-
24dd-
=31
24d-
24dd-
24b-
24dd-
24dd-
24ddd-
24aa-
24ddd-
24dd-
24dd-
24a-
24dd-
=32
24dd-
24ddd-
24gg-
24ddd-
24dd-
24dd-
24g-
24dd-
24d-
24d-
24G-
24d-
=33
8r
24e-
24G-
24d-
24e-
24g-
24d-
24e-
24g-
24dd-
=34
24e-
24g-
24dd-
24ee-
24g-
24dd-
24ee-
24gg-
24dd-
24ee-
24ddd-
24gg-
=35
24ee-
24gg-
24eee-
24ddd-
24gg-
24ee-
24ddd-
24gg-
24ee-
24dd-
24gg-
24ee-
=36
24dd-
24g-
24ee-
24dd-
24g-
24e-
24dd-
24g-
24e-
24d-
24g-
24e-
=37
24A-
24e-
24g-
24a-
24e-
24g-
24a-
24ee-
24g-
24a-
24ee-
24gg-
=38
24a-
24ee-
24gg-
24aa-
24ee-
24gg-
24aa-
24eee-
24gg-
24aa-
24ggg-
24eee-
=39
24aa-
24gg-
24eee-
24aa-
24gg-
24ee-
24aa-
24gg-
24ee-
24a-
24gg-
24ee-
=40
24a-
24g-
24ee-
24a-
24g-
24e-
24a-
24g-
24e-
24A-
24g-
24e-
=41
24d-
24dd-
24a-
24dd-
24a-
24aa-
24dd-
24aa-
24a-
24dd-
24a-
24dd-
=42
24d-
24dd-
24a-
24dd-
24a-
24aa-
24dd-
24aa-
24a-
24dd-
24a-
24dd-
=43
24d-
24dd-
24a-
24dd-
24dd-
24ddd-
24aa-
24ddd-
24dd-
24dd-
24a-
24dd-
=44
24a-
24aa-
24dd-
24aa-
24aa-
24aaa-
24ddd-
24aaa-
24aa-
24aa-
24dd-
24aa-
=45
24dd-
24ee-
24dd-
24ee-
24dd-
24eee-
24ddd-
24eee-
24ddd-
24dd-
24ee-
24dd-
=46
24dd-
24ee-
24dd-
24ee-
24dd-
24eee-
24ddd-
24eee-
24ddd-
24dd-
24ee-
24dd-
=47
24ddd-
24eee-
24ddd-
24dd-
24ee-
24dd-
24ddd-
24eee-
24ddd-
24dd-
24ee-
24dd-
=48
24ddd-
24eee-
24ddd-
24dd-
24ee-
24dd-
24ddd-
24eee-
24ddd-
24dd-
24ee-
24dd-
=49
24gg-
24bb-
24dd-
24gg-
24ee-
24gg-
24dd-
24gg-
24b-
24ddd-
24gg-
24bb-
=50
24gg-
24bb-
24dd-
24gg-
24ee-
24gg-
24dd-
24gg-
24b-
24dd-
24g-
24b-
=51
24d-
24dd-
24a-
24dd-
24a-
24aa-
24a-
24aa-
24ee-
24aa-
24ee-
24eee-
=52
24ee-
24eee-
24aa-
24ee-
24a-
24aa-
24a-
24aa-
24ee-
24aa-
24dd-
24ddd-
=53
24gg-
24bb-
24dd-
24gg-
24ee-
24gg-
24dd-
24gg-
24b-
24ddd-
24gg-
24bb-
=54
24gg-
24bb-
24dd-
24gg-
24ee-
24gg-
24dd-
24gg-
24b-
24dd-
24g-
24b-
=55
24e-
24ee-
24a-
24ee-
24a-
24aa-
24b-
24bb-
24b-
24bb-
24b-
24bb-
=56
24ee-
24eee-
24aa-
24ee-
24a-
24aa-
24b-
24bb-
24b-
24bb-
24b-
24bb-
=57
24b-
24bb-
24ee-
24bb-
24a-
24aa-
24a-
24aa-
24dd-
24aa-
24g-
24gg-
=58
24d-
24dd-
24a-
24dd-
24a-
24aa-
24g-
24gg-
24dd-
24gg-
24dd-
24ddd-
=59
24b-
24bb-
24ee-
24bb-
24a-
24aa-
24a-
24aa-
24dd-
24aa-
24g-
24gg-
=60
24d-
24dd-
24a-
24dd-
24a-
24aa-
24g-
24gg-
24dd-
24gg-
24dd-
24ddd-
=61
24b-
24bb-
24ee-
24bb-
24a-
24aa-
24b-
24bb-
24ee-
24bb-
24a-
24aa-
=62
24b-
24bb-
24ee-
24bb-
24a-
24aa-
24b-
24bb-
24ee-
24bb-
24a-
24aa-
=63
24dd-
24bb-
24a-
24aa-
24dd-
24bb-
24a-
24aa-
24dd-
24bb-
24a-
24aa-
=64
24dd-
24bb-
24a-
24aa-
24dd-
24bb-
24a-
24aa-
24dd-
24bb-
24a-
24aa-
=65
24eee-
48r
48ddd-
24bb-
24aa-
24gg-
24ee-
24ddd-
24bb-
24aa-
24gg-
24ee-
24dd-
=66
4a-
8.b-
16a-
=67
8g-
8r
24aa-
24bb-
24aa-
24dd-
24ddd-
24dd-
=68
24dd-
24ee-
24dd-
24g-
24gg-
24g-
24aa-
24bb-
24aa-
[8dd-
=69
24dd-]
24gg-
24aa-
24bb-
24aa-
24gg-
24dd-
24aa-
24ddd-
24eee-
24ddd-
24aa-
=70
24g-
24dd-
24gg-
24aa-
24gg-
24ee-
24dd-
24aa-
24ddd-
24eee-
24ddd-
24aa-
=71
24gg-
24aa-
24gg-
24dd-
24ddd-
24dd-
24dd-
24ee-
24dd-
24a-
24aa-
24a-
=72
24aa-
24bb-
24aa-
24gg-
24ggg-
24gg-
[4dd-
=73
24dd-]
24gg-
24aa-
24bb-
24aa-
24gg-
24dd-
24aa-
24ddd-
24eee-
24ddd-
24aa-
=74
24g-
24dd-
24gg-
24aa-
24gg-
24dd-
24a-
24dd-
24aa-
24bb-
24aa-
24dd-
=75
24bb-
24dd-
24aa-
24b-
24aa-
24dd-
24gg-
24b-
24ee-
24aa-
24ddd-
24dd-
=76
24bb-
24dd-
24aa-
24b-
24aa-
24dd-
24gg-
24b-
24ee-
24a-
24dd-
24d-
=77
24b-
24d-
24a-
24B-
24a-
24d-
24g-
24B-
24e-
8r
=78
2r
=79
4r
24g-
24d-
24B-
24b-
24e-
24d-
=80
24dd-
24a-
24g-
24gg-
24dd-
24b-
24bb-
24ee-
24dd-
24ddd-
24aa-
24gg-
=81
24gg-
24dd-
24b-
24bb-
24ee-
24dd-
24gg-
24dd-
24b-
24bb-
24ee-
24dd-
=82
24gg-
24dd-
24b-
24bb-
24ee-
24dd-
24gg-
24dd-
24b-
24bb-
24ee-
24dd-
=83
24gg-
24r
24ggg-
24eee-
24ddd-
24bb-
24aa-
24gg-
24ee-
24dd-
24b-
24a-
=84
8g-
8r
4bb-
=85
2r
==
*-
